Simply-Blue-Circles/scalable/apps/viber.svg

<svg xmlns="http://www.w3.org/2000/svg" width="48" height="48" viewBox="0 0 12.7 12.7"><path d="M6.34.07a6.29 6.29 0 0 0-6.29 6.3 6.29 6.29 0 0 0 6.3 6.28 6.29 6.29 0 0 0 6.28-6.29A6.29 6.29 0 0 0 6.34.07zM6.32 1l.01.01a5.4 5.4 0 0 1 5.4 5.4 5.4 5.4 0 0 1-5.4 5.41 5.4 5.4 0 0 1-5.41-5.4A5.4 5.4 0 0 1 6.32 1z" fill="#2c89a0"/><path d="M5.23 2.08a2.75 2.75 0 0 0-2.71 2.8v1.65c0 1.26.8 2.32 1.91 2.67v1.61l1.64-1.49h1.4c1.5 0 2.71-1.24 2.71-2.8V4.89c0-1.55-1.2-2.8-2.7-2.8zm1.74 1.07c.54 0 1 .18 1.37.52.19.18.33.39.42.63.1.23.14.5.15.8a.19.19 0 0 1-.2.18.19.19 0 0 1-.18-.19c0-.5-.16-.88-.45-1.15-.3-.28-.67-.42-1.12-.43a.19.19 0 0 1-.18-.18c0-.1.08-.18.19-.18zm-1.93.43c.08.01.15.05.2.11l.01.01.02.03.08.1.18.22c.08.12.2.3.25.4.1.19.04.39-.07.47l-.2.16c-.07.06-.07.19-.07.2 0 0 .29 1.06 1.34 1.33 0 0 .13 0 .2-.07l.15-.2c.09-.11.29-.17.48-.07a4.28 4.28 0 0 1 .75.54c.12.1.15.26.08.42v.02c-.1.15-.2.28-.34.4v.01a.67.67 0 0 1-.4.17c-.06 0-.1 0-.16-.02l-.01-.01a5.45 5.45 0 0 1-2-1.22v-.01H5.5v-.02l-.02-.01-.01-.01a5.45 5.45 0 0 1-1.22-2h-.01V4.5a.51.51 0 0 1-.03-.15V4.3a.67.67 0 0 1 .16-.33l.01-.02c.13-.14.27-.25.41-.33h.01a.38.38 0 0 1 .23-.04zM6.98 4c.32.02.6.14.8.34.18.2.28.47.27.76 0 .1-.08.18-.18.18a.18.18 0 0 1-.19-.19.66.66 0 0 0-.18-.5c-.13-.14-.3-.21-.55-.23-.1 0-.18-.1-.17-.2 0-.1.1-.17.2-.16z" fill="purple" opacity=".75"/></svg>

<?xml version="1.0" encoding="UTF-8" standalone="no"?>
<svg
   xmlns:dc="http://purl.org/dc/elements/1.1/"
   xmlns:cc="http://creativecommons.org/ns#"
   xmlns:rdf="http://www.w3.org/1999/02/22-rdf-syntax-ns#"
   xmlns:svg="http://www.w3.org/2000/svg"
   xmlns="http://www.w3.org/2000/svg"
   xmlns:sodipodi="http://sodipodi.sourceforge.net/DTD/sodipodi-0.dtd"
   xmlns:inkscape="http://www.inkscape.org/namespaces/inkscape"
   width="48"
   height="48"
   viewBox="0 0 12.7 12.7"
   version="1.1"
   id="svg6"
   sodipodi:docname="viber.svg"
   inkscape:version="0.92.4 (5da689c313, 2019-01-14)">
  <metadata
     id="metadata12">
    <rdf:RDF>
      <cc:Work
         rdf:about="">
        <dc:format>image/svg+xml</dc:format>
        <dc:type
           rdf:resource="http://purl.org/dc/dcmitype/StillImage" />
        <dc:title></dc:title>
      </cc:Work>
    </rdf:RDF>
  </metadata>
  <defs
     id="defs10" />
  <sodipodi:namedview
     pagecolor="#ffffff"
     bordercolor="#666666"
     borderopacity="1"
     objecttolerance="10"
     gridtolerance="10"
     guidetolerance="10"
     inkscape:pageopacity="0"
     inkscape:pageshadow="2"
     inkscape:window-width="1087"
     inkscape:window-height="480"
     id="namedview8"
     showgrid="false"
     inkscape:zoom="4.9166667"
     inkscape:cx="2.1355932"
     inkscape:cy="24"
     inkscape:window-x="0"
     inkscape:window-y="25"
     inkscape:window-maximized="0"
     inkscape:current-layer="svg6" />
  <path
     d="M 6.34,0.07 A 6.29,6.29 0 0 0 0.05,6.37 6.29,6.29 0 0 0 6.35,12.65 6.29,6.29 0 0 0 12.63,6.36 6.29,6.29 0 0 0 6.34,0.07 Z M 6.32,1 6.33,1.01 a 5.4,5.4 0 0 1 5.4,5.4 5.4,5.4 0 0 1 -5.4,5.41 A 5.4,5.4 0 0 1 0.92,6.42 5.4,5.4 0 0 1 6.32,1 Z"
     id="path2"
     inkscape:connector-curvature="0"
     style="fill:#2c89a0" />
  <path
     d="m 5.23,2.08 a 2.75,2.75 0 0 0 -2.71,2.8 v 1.65 c 0,1.26 0.8,2.32 1.91,2.67 v 1.61 L 6.07,9.32 h 1.4 c 1.5,0 2.71,-1.24 2.71,-2.8 V 4.89 c 0,-1.55 -1.2,-2.8 -2.7,-2.8 z m 1.74,1.07 c 0.54,0 1,0.18 1.37,0.52 0.19,0.18 0.33,0.39 0.42,0.63 0.1,0.23 0.14,0.5 0.15,0.8 A 0.19,0.19 0 0 1 8.71,5.28 0.19,0.19 0 0 1 8.53,5.09 C 8.53,4.59 8.37,4.21 8.08,3.94 7.78,3.66 7.41,3.52 6.96,3.51 A 0.19,0.19 0 0 1 6.78,3.33 c 0,-0.1 0.08,-0.18 0.19,-0.18 z M 5.04,3.58 c 0.08,0.01 0.15,0.05 0.2,0.11 l 0.01,0.01 0.02,0.03 0.08,0.1 0.18,0.22 c 0.08,0.12 0.2,0.3 0.25,0.4 0.1,0.19 0.04,0.39 -0.07,0.47 l -0.2,0.16 c -0.07,0.06 -0.07,0.19 -0.07,0.2 0,0 0.29,1.06 1.34,1.33 0,0 0.13,0 0.2,-0.07 L 7.13,6.34 C 7.22,6.23 7.42,6.17 7.61,6.27 a 4.28,4.28 0 0 1 0.75,0.54 c 0.12,0.1 0.15,0.26 0.08,0.42 V 7.25 C 8.34,7.4 8.24,7.53 8.1,7.65 V 7.66 A 0.67,0.67 0 0 1 7.7,7.83 c -0.06,0 -0.1,0 -0.16,-0.02 L 7.53,7.8 a 5.45,5.45 0 0 1 -2,-1.22 V 6.57 H 5.5 V 6.55 L 5.48,6.54 5.47,6.53 a 5.45,5.45 0 0 1 -1.22,-2 H 4.24 V 4.5 A 0.51,0.51 0 0 1 4.21,4.35 V 4.3 A 0.67,0.67 0 0 1 4.37,3.97 L 4.38,3.95 C 4.51,3.81 4.65,3.7 4.79,3.62 H 4.8 A 0.38,0.38 0 0 1 5.03,3.58 Z M 6.98,4 c 0.32,0.02 0.6,0.14 0.8,0.34 0.18,0.2 0.28,0.47 0.27,0.76 0,0.1 -0.08,0.18 -0.18,0.18 A 0.18,0.18 0 0 1 7.68,5.09 0.66,0.66 0 0 0 7.5,4.59 C 7.37,4.45 7.2,4.38 6.95,4.36 6.85,4.36 6.77,4.26 6.78,4.16 6.78,4.06 6.88,3.99 6.98,4 Z"
     id="path4"
     inkscape:connector-curvature="0"
     style="opacity:0.75;fill:#800080" />
</svg>
